assets/symbols/mulberry/signpost.svg

<svg height="850.394" viewBox="0 0 850.394 850.394" width="850.394" xmlns="http://www.w3.org/2000/svg"><path d="m483.39 158.55v.01h-17.78v93.52l16.38-.05.01 3.97 1.39 517.35h-110.47l-.92-403.35v-4.99h39.2l-.55-114.85h-30.62v-76.56l-7.11.06v-66.24l57.75-25.62 52.72 31.09z" fill="#9c5b16"/><path d="m729.76 251.26-247.77.77-16.38.05v-93.52h268.26l41.83 39.37zm-319.11-1.1.55 114.85h-293.68l-41.02-59.07 47.03-55.78h256.5zm-30.62-4.37v4.37h-180.17v-1.74l-23.82-33.26 24.61-39.92 172.27-1.58 7.11-.06z" fill="#f6cc4b"/><g fill="none"><g><path d="m481.99 252.03-16.38.05v-93.52h268.26l41.83 39.37-45.94 53.33zm-101.96-6.24v-72.19l-7.11.06-172.27 1.58-24.61 39.92 23.82 33.26m180.17 1.74h30.62l.55 114.85h-293.68l-41.02-59.07 47.03-55.78h76.33zm-7.11 523.19-.92-403.35m110-114 1.39 517.35" stroke="#231f20" stroke-width="21"/><path d="m372.92 173.66v-66.24l57.75-25.62 52.72 31.09v45.66" stroke="#231f20" stroke-width="21"/><path d="m372.92 773.35h110.47" stroke="#abda4d"/></g><path d="m0 0h850.394v850.394h-850.394z"/><path d="m0 0h850.394v850.394h-850.394z"/></g></svg>

<svg xmlns="http://www.w3.org/2000/svg" width="850.394" height="850.394" viewBox="0 0 850.394 850.394" overflow="visible"><path fill="#9c5b16" d="M483.39 158.55v.01h-17.78v93.52l16.38-.05.01 3.97 1.39 517.35H372.92L372 370v-4.99h39.2l-.55-114.85h-30.62V173.6l-7.11.06v-66.24l57.75-25.62 52.72 31.09z"/><path fill="#f6cc4b" d="M729.76 251.26l-247.77.77-16.38.05v-93.52h268.26l41.83 39.37zM410.65 250.16l.55 114.85H117.52L76.5 305.94l47.03-55.78h256.5zM380.03 245.79v4.37H199.86v-1.74l-23.82-33.26 24.61-39.92 172.27-1.58 7.11-.06z"/><g fill="none"><path stroke="#231f20" stroke-width="21" d="M481.99 252.03l-16.38.05v-93.52h268.26l41.83 39.37-45.94 53.33zM380.03 245.79V173.6l-7.11.06-172.27 1.58-24.61 39.92 23.82 33.26M380.03 250.16h30.62l.55 114.85H117.52L76.5 305.94l47.03-55.78h76.33zM372.92 773.35L372 370M482 256l1.39 517.35"/><path stroke="#231f20" stroke-width="21" d="M372.92 173.66v-66.24l57.75-25.62 52.72 31.09v45.66"/><path stroke="#abda4d" d="M372.92 773.35h110.47"/></g><path fill="none" d="M0 0h850.394v850.394H0z"/><path fill="none" d="M0 0h850.394v850.394H0z"/></svg>
